X: 33993
T: Reel à Ti-Mé
R: reel
M: 4/4
K: Dmajor
afbf afde|fafe dBAG|FAdA FAdf|eB B/B/B B2ef|g2ga gfed|
c2cd c2cB|1 Acef gfga|ba^ga f2fg:|2 Acef gecA|dfec d2AF||
|:D2FA dAFD|G2BG =cGBG|AAeA AfAA|g3g fecA|
D2FA dAFD|G2BG =cGBG|AAeA AfAA|gece d4:|

